!!!COM: Bach, Johann Sebastian
!!!OTL: 276. Lobt Gott, ihr Christen, allzugleich
!!!ONM: No. 276
!!!OCL: Erk
!!!SCA: BWV 375
!!!YOE: Riemenschneider, Albert
!!!OPR: 371 Harmonized Chorales and 69 Chorale Melodies with Figured Bass
!!!OPT: Bach Chorale Harmonizations
**harm	**root	**kern	**kern	**kern	**kern
!	!	!bass	!tenor	!alto	!sprno
*Iorgan	*Iorgan	*Iorgan	*Iorgan	*Iorgan	*Iorgan
*k[f#]	*k[f#]	*k[f#]	*k[f#]	*k[f#]	*k[f#]
*G:	*G:	*G:	*G:	*G:	*G:
*met(c)	*met(c)	*met(c)	*met(c)	*met(c)	*met(c)
*M4/4	*M4/4	*M4/4	*M4/4	*M4/4	*M4/4
*MM60	*MM60	*MM60	*MM60	*MM60	*MM60
I	4GG	4G	4B	4d	4g
=1	=1	=1	=1	=1	=1
Vb	4DD	4F#	4A	8d	4dd
.	.	.	.	8e	.
V	4DD	4D	8A	4f#	4dd
.	.	.	16B	.	.
.	.	.	16c	.	.
I	4GG	8G	8B	4g	4dd
.	.	8A	8A	.	.
I	4GG	8B	4G	8g	4dd
.	.	8G	.	8fn	.
=2	=2	=2	=2	=2	=2
IV	4CC	4c	4G	8e	4ee
.	.	.	.	8g	.
V	4DD	4d	4d	4f#y	8dd
.	.	.	.	.	8cc
I;	4GG;	4G;	4d;	4g;	4b;
Vb	4DD	4F#	4d	4a	4a
=3	=3	=3	=3	=3	=3
vi	4EE	4E	4G	4g	8b
.	.	.	.	.	8cc#
iii	4BB	8B	8d	4f#	4dd
.	.	8A	8c#	.	.
vi7b	4EE	4G	8B	4e	4dd
.	.	.	8e	.	.
V/V	4AA	4A	8a	4e	4cc#
.	.	.	8g	.	.
=4	=4	=4	=4	=4	=4
V;	2.DD;	2.D;	2.f#;	2.d;	2.dd;
V	4DD	4D	8d	4f#	4dd
.	.	.	8c	.	.
=5	=5	=5	=5	=5	=5
I	4GG	8G	8B	4g	4dd
.	.	8A	8c	.	.
iii	4BB	8B	8d	4f#	4dd
.	.	8A	8c	.	.
I	2GG	4.G	8B	8g	8dd
.	.	.	8c	8a	8cc
.	.	.	4d	8b	8b
.	.	8A	.	8a	8cc
=6	=6	=6	=6	=6	=6
!!linebreak: 2
Ib	4GG	4B	4d	4g	8dd
.	.	.	.	.	8cc
IV7	4CC	4c	4e	8g	4b
.	.	.	.	16f#	.
.	.	.	.	16e	.
V;	4DD;	4d;	4A;	4f#;	4a;
iii	4BB	4B	8B	4f#	4dd
.	.	.	8A	.	.
=7	=7	=7	=7	=7	=7
IVb	4CC	[4E	8G	4g	4cc
.	.	.	8A	.	.
vi	8EE	8E]	8B	8g	4b
iiib	8BB	8D	8d	8f#	.
iib	4AA	8C	4e	4e	4a
.	.	8AA	.	.	.
V	4DD	8D	4d	4f#	4a
.	.	8c	.	.	.
=8	=8	=8	=8	=8	=8
Ib	4GG	4B	4d	4g	8g
.	.	.	.	.	8a
viib	4FF#	4A	4c	4f#	8b
.	.	.	.	.	8cc
viioD7/ii;	4GG#;	4G#;	4B;	4fn;	4dd;
V7b/ii	4EE	4GG#y	4B	4e	4dd
=9	=9	=9	=9	=9	=9
ii	4AA	4AA	8c	8e	4cc
.	.	.	8d	8f#y	.
vi	4EE	8E	4e	8g	4b
.	.	8D	.	8f#	.
iib	4AA	8C	8e	4e	4a
.	.	8AA	8c	.	.
V	4DD	4D	8A	4f#	4a
.	.	.	16B	.	.
.	.	.	16c	.	.
=10	=10	=10	=10	=10	=10
I;	2.GG;	2.GG;	2.B;	2.d;	2.g;
==	==	==	==	==	==
*-	*-	*-	*-	*-	*-
!!!CDT: 1685/3//-1750/7/28
!!!OCY: Deutschland
!!!AGN: chorale
!!!AST: Baroque
!!!AIN: vox
!!!YOY: 1941
!!!PPP: New York; London
!!!PPR: G. Schirmer
!!!ENC: David Huron
!!!EED: David Huron
!!!YEN: United States of America
!!!YER: 1992
!!!YEC: Copyright 1992 David Huron
!!!YEM: Rights to all derivative electronic formats reserved.
!!!YER: March 20, 1996
!!!AMT: simple quadruple
!!!EEV: 1.1
!!chor2scor: -l 2 -s 0.6 -o %b.pmx
